assets/images/RICH_LOGO.svg

<svg xmlns="http://www.w3.org/2000/svg" width="241" height="26" viewBox="0 0 241 26">
  <path fill="#1F1F1F" fill-rule="evenodd" d="M6.68740974,16.0976562 L6.68740974,25.1028646 L0,25.1028646 L0,0.35546875 L8.10954245,0.35546875 C14.8364895,0.35546875 18.1999126,2.79294437 18.1999126,7.66796875 C18.1999126,10.5343025 16.8003674,12.7517283 14.0012351,14.3203125 L21.2134795,25.1028646 L13.6287718,25.1028646 L8.38042487,16.0976562 L6.68740974,16.0976562 Z M6.68740974,11.0703125 L7.94024094,11.0703125 C10.2766135,11.0703125 11.4447822,10.0377707 11.4447822,7.97265625 C11.4447822,6.26865467 10.2991868,5.41666667 8.00796154,5.41666667 L6.68740974,5.41666667 L6.68740974,11.0703125 Z M37.9122486,25.1028646 L37.9122486,0.35546875 L44.6335186,0.35546875 L44.6335186,25.1028646 L37.9122486,25.1028646 Z M75.4520338,5.484375 C73.8605917,5.484375 72.6190597,6.13606119 71.7274006,7.43945312 C70.8357415,8.74284506 70.3899186,10.5399191 70.3899186,12.8307292 C70.3899186,17.5929058 72.2014267,19.9739583 75.8244972,19.9739583 C76.9193191,19.9739583 77.9802646,19.8216161 79.0073656,19.5169271 C80.0344666,19.2122381 81.0671955,18.8454883 82.1055833,18.4166667 L82.1055833,24.0703125 C80.0400945,24.9843796 77.703757,25.4414062 75.0965007,25.4414062 C71.360562,25.4414062 68.4965733,24.3580838 66.5044489,22.1914062 C64.5123245,20.0247287 63.5162772,16.8932496 63.5162772,12.796875 C63.5162772,10.2352302 63.9987817,7.98395068 64.9638052,6.04296875 C65.9288286,4.10198682 67.3170871,2.60959723 69.1286224,1.56575521 C70.9401576,0.521913184 73.0705137,0 75.5197545,0 C78.1947317,0 80.751159,0.581157383 83.189113,1.74348958 L81.1405647,7.0078125 C80.2263319,6.57899091 79.3121129,6.21788341 78.3978802,5.92447917 C77.4836474,5.63107492 76.5017085,5.484375 75.4520338,5.484375 Z M139.732971,25.0972563 L147.806775,0.202615543 L156.755569,0.202615543 L164.878165,25.0972563 L157.568575,25.0972563 L152.301952,4.36674123 L147.082034,25.0972563 L139.732971,25.0972563 Z M122.591215,25.1028646 L115.869945,25.1028646 L115.869945,15.0143229 L108.099005,15.0143229 L108.099005,25.1028646 L101.377735,25.1028646 L101.377735,0.35546875 L108.099005,0.35546875 L108.099005,9.52994792 L115.869945,9.52994792 L115.869945,0.35546875 L122.591215,0.35546875 L122.591215,25.1028646 Z M188.697805,16.0976562 L188.697805,25.1028646 L182.010395,25.1028646 L182.010395,0.35546875 L190.119938,0.35546875 C196.846885,0.35546875 200.210308,2.79294437 200.210308,7.66796875 C200.210308,10.5343025 198.810763,12.7517283 196.011631,14.3203125 L203.223875,25.1028646 L195.639167,25.1028646 L190.39082,16.0976562 L188.697805,16.0976562 Z M188.697805,11.0703125 L189.950636,11.0703125 C192.287009,11.0703125 193.455178,10.0377707 193.455178,7.97265625 C193.455178,6.26865467 192.309582,5.41666667 190.018357,5.41666667 L188.697805,5.41666667 L188.697805,11.0703125 Z M240.932962,12.2044271 C240.932962,16.3346561 239.795831,19.5169159 237.521536,21.7513021 C235.247241,23.9856883 232.050296,25.1028646 227.930606,25.1028646 L219.922644,25.1028646 L219.922644,0.35546875 L228.489301,0.35546875 C232.462263,0.35546875 235.529411,1.37108359 237.690838,3.40234375 C239.852265,5.43360391 240.932962,8.36760234 240.932962,12.2044271 Z M233.9916,12.4414062 C233.9916,10.1731657 233.542955,8.49175895 232.645653,7.39713542 C231.74835,6.30251189 230.385487,5.75520833 228.557021,5.75520833 L226.610054,5.75520833 L226.610054,19.6184896 L228.099907,19.6184896 C230.131535,19.6184896 231.621374,19.0288687 232.569467,17.8496094 C233.51756,16.67035 233.9916,14.8676337 233.9916,12.4414062 Z"/>
</svg>

<svg width="241" height="26" xmlns="http://www.w3.org/2000/svg"><g fill="none" fill-rule="evenodd"><path d="M6.687 16.098v9.005H0V.355h8.11c6.726 0 10.09 2.438 10.09 7.313 0 2.866-1.4 5.084-4.199 6.652l7.212 10.783H13.63L8.38 16.098H6.687zm0-5.028H7.94c2.337 0 3.505-1.032 3.505-3.097 0-1.704-1.146-2.556-3.437-2.556h-1.32v5.653zm31.225 14.033V.355h6.722v24.748h-6.722zm37.54-19.619c-1.591 0-2.833.652-3.725 1.955-.891 1.304-1.337 3.1-1.337 5.392 0 4.762 1.811 7.143 5.434 7.143 1.095 0 2.156-.152 3.183-.457a31.847 31.847 0 0 0 3.099-1.1v5.653c-2.066.914-4.402 1.371-7.01 1.371-3.735 0-6.6-1.083-8.592-3.25-1.992-2.166-2.988-5.298-2.988-9.394 0-2.562.483-4.813 1.448-6.754.965-1.941 2.353-3.433 4.165-4.477C70.94.522 73.07 0 75.519 0c2.676 0 5.232.581 7.67 1.743l-2.048 5.265a23.035 23.035 0 0 0-2.743-1.084 9.587 9.587 0 0 0-2.946-.44zm47.14 19.619h-6.722V15.014h-7.771v10.089h-6.721V.355h6.721V9.53h7.77V.355h6.722v24.748zm34.983 0l-1.22-4.638h-8.041l-1.253 4.638h-7.348L147.79.253h8.922l8.177 24.85h-7.313zm-2.608-10.123l-1.066-4.062c-.249-.903-.55-2.07-.906-3.504-.356-1.433-.59-2.46-.703-3.08a68.939 68.939 0 0 1-.6 2.843c-.3 1.32-.963 3.922-1.99 7.803h5.265zm33.73 1.118v9.005h-6.687V.355h8.11c6.727 0 10.09 2.438 10.09 7.313 0 2.866-1.4 5.084-4.198 6.652l7.212 10.783h-7.585l-5.248-9.005h-1.693zm0-5.028h1.254c2.336 0 3.504-1.032 3.504-3.097 0-1.704-1.145-2.556-3.437-2.556h-1.32v5.653zm52.236 1.134c0 4.13-1.137 7.313-3.411 9.547-2.275 2.235-5.472 3.352-9.591 3.352h-8.008V.355h8.566c3.973 0 7.04 1.016 9.202 3.047 2.161 2.032 3.242 4.966 3.242 8.802zm-6.941.237c0-2.268-.449-3.95-1.346-5.044-.898-1.094-2.26-1.642-4.089-1.642h-1.947v13.863h1.49c2.032 0 3.521-.59 4.47-1.768.948-1.18 1.422-2.982 1.422-5.409z" fill="#1F1F1F"/><path fill="#FCFCFC" d="M149.85 14.37l4.921-.287 1.86 7.367-8.603.048z"/></g></svg>
